X:1
T:Å Herre Jesus, 887.887
T:Å Herre Jesus, 887.887
T:15th Century German
T:Public Domain Courtesy of the Cyber Hymnal™
C:15th Century German
Z:Public Domain
Z:Courtesy of the Cyber Hymnal™
%%score ( 1 2 ) ( 3 4 )
L:1/8
Q:1/4=108
M:4/4
K:Ab
V:1 treble 
V:2 treble 
V:3 bass 
V:4 bass 
V:1
 [CF]2 | [DF]2 [DF]2 [Ec]2 [EB]2 | [Cc]2 A2 [=EG]2 F2 | [CA]2 [EG]2 [EA]2 [Ec]2 | %4
 [=DB]2 A2 [EG]2 [EA]2 | [EF]2 [=DF]2 [EB]2 [EG]2 | F4 [B,E]2 [B,E]2 | [CA]2 [EG]2 [EA]2 [Ec]2 | %8
 [EB]2 A2 [=EG]2 F2 | [CA]2 [EG]2 [EA]2 [Ec]2 | [DB]2 [CA]2 [=EG]2 [Cc]2 | %11
 [Fc]2 [Fc]2 [FB]2 [FA]2 | G4 !fermata![CF]2 |] %13
V:2
 x2 | x8 | x2 (C=D) x F2 x | x8 | x2 (C=D) x4 | x8 | (E2 =D2) x4 | x8 | x2 (C=D) x F2 x | x8 | x8 | %11
 x8 | (F2 =E2) x2 |] %13
V:3
 [F,A,]2 | [D,A,]2 [B,,B,]2 [A,,C]2 [E,G,]2 | [=E,G,]2 [F,A,]2 [C,C]2 [D,A,]2 | %3
 [F,A,]2 [E,B,]2 [C,A,]2 [A,,A,]2 | [B,,F,]2 [F,A,]2 [E,B,]2 [A,,C]2 | B,2 z [G,,B,]2 [E,,B,]2 x | %6
 [B,,B,]4 [E,G,]2 [G,B,]2 | [F,A,]2 [E,B,]2 [C,A,]2 [A,,A,]2 | [E,G,]2 [F,A,]2 [C,C]2 [D,A,]2 | %9
 [F,A,]2 [E,B,]2 [C,A,]2 [A,,A,]2 | [B,,F,]2 [F,A,]2 [C,C]2 [=E,G,]2 | %11
 [F,A,]2 [A,C]2 [B,D]2 [F,C]2 | ([B,,D]2 [C,C]2) !fermata![F,,A,]2 |] %13
V:4
 x2 | x8 | x8 | x8 | x8 | B,,3 (B,2 A,,) x2 | x8 | x8 | x8 | x8 | x8 | x8 | x6 |] %13

